**kern
*MM60
*k[b-e-]
*M4/4
=1
4g
4a
4b-
4g
=2
8ee-
8ee-
8ee-
8ee-
4a
8r
8a
=3
8dd
8dd
8dd
8dd
4g
8r
8ee-
=4
16dd
16ee-
16dd
16ee-
16dd
16ee-
16dd
16ee-
16cc
16dd
16cc
16dd
16cc
16dd
16cc
16dd
=5
4b-
8.a
16g
4a
[4ff
=6
8ff]
16ee
16dd
[4gg
16gg]
16aa
16ff
16gg
16ee
16ff
16dd
16ee
=7
[4cc#
16cc#]
16ee
16dd
16ee
16ff
16gg
16ee
16ff
8dd
[8gg
=8
8gg]
8cc
[4ff
8ff]
8bb-
[4ee
=9
8ee]
8a
[4dd
16dd]
16ff
16ee
16gg
8.cc#M
16dd
=10
4dd
[4cc
8cc]
16b-
16a
16b-
16ee-
16dd
16ee-
=11
8a
[8dd
16dd]
16ee-
16cc
16dd
16b-
16cc
16a
16b-
16cc
16dd
16b-
16cc
=12
16dd
16ee-
16cc
16dd
16b-
16dd
16ee-
16ff
[4gg
16gg]
16ff
16ee-
16dd
=13
4cc
4r
[4ff
16ff]
16ee-
16dd
16cc
=14
4b-
4r
[4ff
16ff]
16gg
16ff
16gg
=15
[4ee-
16ee-]
16ff
16ee-
16ff
[4dd
16dd]
16ff
16ee-
16dd
=16
[4cc
16cc]
16ee-
16dd
16cc
16b-
16a
16b-
16cc
16dd
16cc
16b-
16cc
=17
16a
16g
16a
16b-
[4cc
16cc]
16a
16b-
16cc
16f
16a
16b
16cc#
=18
16dd
16ee
16cc
16dd
16b-
16cc
16a
16b-
4g
8r
8g
=19
16cc
16dd
16b-
16cc
16a
16b-
16g
16a
4f
16r
16cc
16dd
16ee
=20
4.ff
8ff
4.bb-
8bb-
=21
4aa
16r
16dd
16ee
16ff
[4gg
16gg]
16gg
16ff
16ee
=22
[4ff
16ff]
16b-
16cc
16dd
[4ee-
16ee-]
16ee-
16dd
16cc
=23
[4dd
16dd]
16dd
16gg
16ff
16ee-
16ff
16ee-
16dd
16cc
16b-
16a
16g
=24
16f#
16a
16b-
16cc
16dd
16ee
16ff#
16dd
16gg
16b-
16cc
16dd
8.aM
16g
=25
8.g
16b-
8.cc
16cc
16dd
16ee-
16dd
16cc
8b-
[8gg
=26
16gg]
16gg
16aa
16bb-
16ccc
16aa
16bb-
16ccc
8ff#
8aa
4dd
=27
16r
16gg
16bb-
16aa
16gg
16aa
16gg
16ff
16ee-
16dd
8cc
[4aa
=28
4aa]
2gg
4ff#
=29
8gg
[8dd
16dd]
16cc
32b-
32a
32b-
32g
8r
[8gg
16gg]
16aa-
16gg
16ff
=30
4ee-
8r
8ee-
2ee-
=31
4dd
4r
2r
=32
4dd
4ee
4ff
4dd
=33
8bb-
8bb-
8bb-
8bb-
4ee
8r
8ee
=34
8aa
8aa
8aa
8aa
4dd
8r
8bb-
=35
16aa
16bb-
16aa
16bb-
16aa
16bb-
16aa
16bb-
16gg
16aa
16gg
16aa
16gg
16aa
16gg
16aa
=36
[4ff
16ff]
16gg
16ff
16gg
4ee
4aa
=37
4dd
8r
8bb-
4cc
4aa
=38
4b-
4gg
8a
8cc
8b-
8a
=39
8b-
4ee-
16dd
16cc
8b-
8a
8b-
8g
=40
4cc
4r
16ff
16gg
16ff
16ee-
16dd
16ee-
16dd
16cc
=41
4b-
4r
4r
[4cc
=42
16cc]
8cc
16cc
[4b-
16b-]
8b-
16b-
[4a
=43
16a]
16b-
16a
16b-
[4g
16g]
16a-
16g
16a-
8f
[8ff
=44
16ff]
16ee-
16dd
16ee-
16ff
32gg
32aa-
16gg
16ff
8.ee-
16ee-
16dd
32ee-
32ff
16ee-
16dd
=45
8.cc
16cc
8b-
8b-
8.a-
16a-
16g
16ee-
16cc
16b-
=46
16a
16ff
16b-
16gg
16ee-
32ff
32gg
16ff
16ee-
16dd
16ff
16b-
16dd
16ee-
16gg
16cc
16ee-
=47
8ff
8b-
4r
4r
16r
16b-
16cc
16dd
=48
16ee-
16gg
16ee-
16b-
16g
16b-
16ee-
16gg
8.ff
16gg
8.ee-
16ff
=49
8dd
8ff
[4bb-
8bb-]
16aa
16gg
8aa
8dd
=50
4.gg
8cc
4ff
8r
[8b-
=51
8b-]
16cc
16dd
8.aM
[16b-
16b-]
8dd
[16dd
16dd]
8cc
16b-
=52
16ee-
16dd
16ee-
16ff
8.ee-M
32dd
32ee-
16dd
16F
16B-
16c
16d
16e-
16f
16g
=53
16a
16r
16r
16c
16f
16g
16a
16b-
16cc
16g
16cc
16dd
16ee-
16ff
16gg
16aa
=54
8.bb-
16aa
16gg
16ff
16ee
16dd
16cc#
16aa
16gg
16ff
8.eeM
16dd
=55
4dd
4r
2r
=56
4r
2dd
4cc#
=57
8.dd
16ee
[4ff
16ff]
16aa
16gg
16bb-
8.ee
[16ff
=58
8ff]
8cc
2ff
[4ee
=59
8ee]
8a
2dd
4cc#
=60
16dd
32ff
32ee-
32dd
32ee-
16ff
4b-
16r
32gg
32ff
32ee-
32ff
16gg
4cc
=61
16r
32aa
32gg
32ff
32gg
16aa
4dd
16r
16dd
16ee-
16dd
[4cc
=62
16cc]
16cc
16dd
16cc
[4b-
16b-]
16b-
16cc
16b-
[4a
=63
16a]
16b-
16a
16b-
4cc
4b-
4a
=64
4g
4r
16r
16g
16b-
16dd
16gg
16ff
16ee-
16dd
=65
4cc
4r
16r
16f
16a
16cc
16ff
16ee-
16dd
16cc
=66
4b-
4r
16r
16ff
16ee-
16dd
8ee-
8cc
=67
8r
8b
4b
8r
8ee-
4ee-
=68
8r
8dd
[4gg
8gg]
16ff
16ee
[4ff
=69
8ff]
16ee-
16dd
16ee-
16ff
16dd
16ee-
16cc#
16ee
16cc#
16ee
16cc#
16ee
16cc#
16ee
=70
16dd
16ff#
16dd
16ff#
16cc#
16ee
16dd
16cc#
8dd
8r
4r
=71
1r
=72
32r
32a-
32b-
32cc
32dd-
32ee-
32ff
32gg
32aa-
32ee-
32cc
32ee-
32a-
32e-
32c
32e-
8dd 8ff#
32r
32bb-
32aa
32gg
32aa
32gg
32ff#
32ee
32dd
32cc
32b-
32a
=73
32cc
32dd
32ee-
32dd
32cc
32b-
32a
32g
32f#
32g
32a
32b-
32g
32a
32b-
32cc
32a
32b-
32cc
32dd
32b-
32cc
32dd
32ee-
32cc
32dd
32ee
32ff#
32gg
32aa
32bb-
32ff#
=74
[2gg
16gg]
16aa
32bb-
32aa
32bb-
32ccc
8.ff#
16gg
=75
[2gg
4gg_
16gg]
16bb-
16aa
16gg
*^
=76	=76
4ff#	4r
4ff	[4dd
4ee	8dd]
.	[8cc
[4ee-	4cc_
=77	=77
16ee-]	8.cc]
16ee-	.
[8dd	.
.	16cc
16dd]	8b
16dd	.
16ee	8a
32gg	.
32ff#	.
2gg	2b
==	==
*-	*-
